;FLAVOR:Marlin
;TIME:5287
;Filament used: 3.71099m
;Layer height: 0.2
;MINX:82.724
;MINY:96.57
;MINZ:0.2
;MAXX:142.32
;MAXY:127.174
;MAXZ:48
;Generated with Cura_SteamEngine main
M82 ;absolute extrusion mode
; Ender 3 Custom Start G-code
G92 E0 ; Reset Extruder
G28 ; Home all axes
M104 S175 ; Start heating up the nozzle most of the way
M190 S60 ; Start heating the bed, wait until target temperature reached
M109 S200 ; Finish heating the nozzle
G1 Z2.0 F3000 ; Move Z Axis up little to prevent scratching of Heat Bed
G1 X0.1 Y20 Z0.3 F5000.0 ; Move to start position
G1 X0.1 Y200.0 Z0.3 F1500.0 E15 ; Draw the first line
G1 X0.4 Y200.0 Z0.3 F5000.0 ; Move to side a little
G1 X0.4 Y20 Z0.3 F1500.0 E30 ; Draw the second line
G92 E0 ; Reset Extruder
G1 Z2.0 F3000 ; Move Z Axis up little to prevent scratching of Heat Bed
G1 X5 Y20 Z0.3 F5000.0 ; Move over to prevent blob squish
G92 E0
G92 E0
;LAYER_COUNT:240
;LAYER:0
M107
M205 X20 Y20
;MESH:3DBenchy.3mf
G0 F6000 X105.252 Y113.15 Z0.2
;TYPE:WALL-INNER
G1 F1200 X105.669 Y113.142 E0.01387
G1 X106.027 Y113.093 E0.02589
G1 X106.198 Y112.996 E0.03243
G1 X106.38 Y112.745 E0.04274
G1 X106.499 Y112.4 E0.05488
G1 X106.542 Y111.952 E0.06985
G1 X106.538 Y111.615 E0.08106
G1 X106.488 Y111.179 E0.09565
G1 X106.368 Y110.859 E0.10702
G1 X106.143 Y110.607 E0.11826
G1 X105.779 Y110.537 E0.13059
G1 X105.25 Y110.52 E0.14819
G1 X105.252 Y113.15 E0.23566
G0 F6000 X104.905 Y113.538
;TYPE:WALL-OUTER
G1 F1200 X104.956 Y113.568 E0.23763
G1 X105.265 Y113.55 E0.24793
G1 X105.7 Y113.542 E0.2624
G1 X106.158 Y113.479 E0.27777
G1 X106.44 Y113.318 E0.28857
G1 X106.577 Y113.185 E0.29492
G1 X106.744 Y112.919 E0.30537
G1 X106.894 Y112.48 E0.3208
G1 X106.942 Y111.968 E0.3379
G1 X106.938 Y111.611 E0.34978
G1 X106.937 Y111.554 E0.35168
G1 X106.88 Y111.083 E0.36746
G1 X106.724 Y110.671 E0.38211
G1 X106.539 Y110.405 E0.39288
G1 X106.311 Y110.232 E0.4024
G1 X105.935 Y110.16 E0.41514
G1 X105.675 Y110.133 E0.42383
G1 X105.157 Y110.117 E0.44107
G1 X104.883 Y110.132 E0.45019
G1 X104.849 Y110.181 E0.45218
G1 X104.855 Y113.084 E0.54873
G1 X104.836 Y113.387 E0.55883
G1 X104.905 Y113.538 E0.56435
G0 F6000 X105.096 Y113.278
G0 X105.355 Y112.758
G0 X105.65 Y112.746
;TYPE:SKIN
G1 F1027.8 X105.891 Y112.714 E0.57379
G1 X106 Y112.641 E0.57889
G1 X106.112 Y112.319 E0.59213
G1 F1008.4 X106.14 Y111.923 E0.60784
G1 F991.7 X106.137 Y111.618 E0.62011
G1 F1014.8 X106.103 Y111.271 E0.63383
G1 F1034.5 X106.02 Y111.051 E0.6429
G1 X105.937 Y110.952 E0.64788
G1 X105.644 Y110.933 E0.65921
G1 F1027.8 X105.647 Y111.264 E0.67206
G1 F1012.7 X105.651 Y111.595 E0.68511
G1 F997.9 X105.655 Y111.926 E0.69835
G1 F1008.4 X105.647 Y112.269 E0.71193
G1 F1027.8 X105.65 Y112.746 E0.73045
G0 F6000 X105.355 Y112.758
G0 X105.976 Y112.91
G0 X106.65 Y112.517
G0 X108.425 Y112.992
G0 X110.981 Y113.407
;TYPE:WALL-INNER
G1 F1200 X111.274 Y112.899 E0.74996
G1 X111.47 Y112.633 E0.76095
G1 X111.312 Y112.396 E0.77042
G1 X110.812 Y111.514 E0.80414
G1 X110.649 Y111.128 E0.81808
G1 X110.589 Y110.809 E0.82887
G1 X110.64 Y110.419 E0.84196
G1 X110.9 Y110.033 E0.85744
G1 X111.25 Y109.819 E0.87108
G1 X111.67 Y109.757 E0.8852
G1 X111.86 Y109.775 E0.89155
G1 X112.19 Y109.895 E0.90323
G1 X112.502 Y110.171 E0.91708
G1 X112.695 Y110.436 E0.92799
G1 X113.017 Y110.06 E0.94445
G1 X113.337 Y109.844 E0.95729
G1 X113.786 Y109.737 E0.97264
G1 X114.189 Y109.867 E0.98673
G1 X114.33 Y109.959 E0.99233
G1 X114.598 Y110.258 E1.00568
G1 X114.687 Y110.439 E1.01239
G1 X114.795 Y110.195 E1.02127
G1 X114.915 Y110.037 E1.02787
G1 X115.221 Y109.821 E1.04032
G1 X115.688 Y109.74 E1.05609
G1 X116.182 Y109.886 E1.07322
G1 X116.366 Y109.997 E1.08037
G1 X116.644 Y110.283 E1.09363
G1 X116.798 Y110.598 E1.1053
G1 X116.941 Y111.133 E1.12371
G1 X117.063 Y111.441 E1.13473
G1 X117.248 Y110.882 E1.15432
G1 X117.437 Y110.415 E1.17107
G1 X117.769 Y109.99 E1.18901
G1 X117.97 Y109.855 E1.19706
G1 X118.382 Y109.74 E1.21129
G1 X118.835 Y109.849 E1.22679
G1 X119.135 Y110.104 E1.23988
G1 X119.276 Y110.313 E1.24827
G1 X119.553 Y109.98 E1.26267
G1 X119.949 Y109.804 E1.27709
G1 X120.395 Y109.754 E1.29202
G1 X122.526 Y109.754 E1.36289
G1 F1145.6 X122.928 Y109.816 E1.37706
G1 F1050.3 X123.314 Y110.036 E1.39395
G1 F1004.2 X123.421 Y110.175 E1.40092
G1 F1045.8 X123.497 Y110.423 E1.41082
G1 F1145.6 X123.574 Y110.671 E1.41987
G1 F1200 X123.554 Y111.23 E1.43847
G1 X123.372 Y111.667 E1.45421
G1 X123.114 Y112.058 E1.4698
G1 X122.208 Y113.346 E1.52217
G1 X122.704 Y113.394 E1.53875
G1 X123.102 Y113.511 E1.55254
G1 X123.384 Y113.739 E1.5646
G1 X123.528 Y113.919 E1.57227
G1 X123.61 Y114.157 E1.58064
G1 X123.786 Y113.941 E1.58991
G1 X124.074 Y113.565 E1.60566
G1 X124.356 Y113.168 E1.62186
G1 X124.703 Y112.638 E1.64293
G1 X124.984 Y112.162 E1.66131
G1 X125.028 Y111.981 E1.66751
G1 X125.018 Y111.807 E1.67331
G1 X124.947 Y111.516 E1.68327
G1 X124.667 Y111.047 E1.70144
G1 F1182.3 X124.487 Y110.78 E1.71231
G1 F1145.6 X124.306 Y110.512 E1.72358
G1 F1111.1 X124.125 Y110.244 E1.73519
G1 F1045.8 X123.821 Y109.913 E1.75234
G1 F1004.2 X123.667 Y109.716 E1.76228
G1 F1086 X123.462 Y109.421 E1.77549
G1 F1188.1 X123.238 Y109.152 E1.78724
G1 F1200 X122.957 Y108.846 E1.80106
G1 X122.573 Y108.453 E1.81934
G1 X122.047 Y107.962 E1.84327
G1 X121.578 Y107.564 E1.86373
G1 X121.134 Y107.218 E1.88245
G1 X120.464 Y106.746 E1.90971
G1 X119.967 Y106.434 E1.92923
G1 X119.528 Y106.178 E1.94613
G1 X118.798 Y105.798 E1.9735
G1 X118.085 Y105.477 E1.99951
G1 X117.743 Y105.339 E2.01178
G1 X117.009 Y105.076 E2.03771
G1 X116.527 Y104.932 E2.05444
G1 X115.763 Y104.734 E2.08069
G1 X115.211 Y104.618 E2.09945
G1 X114.572 Y104.513 E2.12099
G1 X114.022 Y104.446 E2.13942
G1 X113.348 Y104.394 E2.1619
G1 X112.905 Y104.377 E2.17665
G1 X112.479 Y104.373 E2.19082
G1 X111.81 Y104.394 E2.21308
G1 X88.224 Y105.826 E2.999
G1 X87.936 Y105.914 E3.00901
G1 X87.68 Y106.065 E3.0189
G1 X87.415 Y106.345 E3.03172
G1 X87.299 Y106.663 E3.04298
G1 X87.256 Y106.932 E3.05204
G1 X87.257 Y110.108 E3.15767
G1 X87.341 Y109.887 E3.16554
G1 X87.616 Y109.414 E3.18373
G1 X87.852 Y109.109 E3.19656
G1 X88.256 Y108.736 E3.21485
G1 X88.737 Y108.428 E3.23385
G1 X89.28 Y108.245 E3.2529
G1 X89.83 Y108.145 E3.2715
G1 X90.574 Y108.154 E3.29624
G1 X91.198 Y108.315 E3.31768
G1 X91.684 Y108.548 E3.3356
G1 X92.162 Y108.955 E3.35649
G1 X92.335 Y109.246 E3.36775
G1 X92.38 Y109.039 E3.37479
G1 X92.55 Y108.716 E3.38693
G1 X92.688 Y108.533 E3.39455
G1 X93.065 Y108.324 E3.40889
G1 X93.422 Y108.277 E3.42087
G1 X94.022 Y108.327 E3.44089
G1 X94.601 Y108.317 E3.46015
G1 X96.887 Y108.322 E3.53619
G1 X97.348 Y108.31 E3.55152
G1 X97.624 Y108.369 E3.56091
G1 X97.953 Y108.56 E3.57356
G1 X98.103 Y108.763 E3.58196
G1 X98.253 Y109.083 E3.59371
G1 X98.42 Y108.824 E3.60396
G1 X98.672 Y108.597 E3.61524
G1 X99.092 Y108.349 E3.63147
G1 X99.542 Y108.22 E3.64704
G1 X99.855 Y108.167 E3.6576
G1 X100.2 Y108.143 E3.6691
G1 X100.659 Y108.156 E3.68437
G1 X101.141 Y108.229 E3.70058
G1 X101.525 Y108.376 E3.71426
G1 X101.827 Y108.543 E3.72574
G1 X102.17 Y108.851 E3.74107
G1 F1188.1 X102.451 Y109.259 E3.75771
G1 F1137.4 X102.586 Y109.643 E3.772
G1 F1113.7 X102.615 Y110.079 E3.78766
G1 F1108.5 X102.596 Y110.367 E3.79805
G1 F1078.7 X102.577 Y110.655 E3.80873
G1 F1000 X102.473 Y111.144 E3.82868
G1 F888.9 X102.332 Y111.355 E3.84008
G1 F935.7 X102.535 Y111.643 E3.85511
G1 F1100.9 X102.617 Y111.991 E3.86807
G1 F1212.1 X102.7 Y112.339 E3.87985
G1 F1071.4 X102.932 Y112.654 E3.89442
G1 X103.066 Y112.282 E3.90915
G1 F1212.1 X103.045 Y112.017 E3.9179
G1 F1098.4 X103.024 Y111.751 E3.9276
G1 F933.9 X102.967 Y111.341 E3.94529
G1 F893.9 X103 Y111.058 E3.95801
G1 F1004.2 X103.026 Y110.693 E3.97256
G1 F1073.8 X103.048 Y109.942 E4.00048
G1 F1108.5 X102.992 Y109.446 E4.01845
G1 F1151.1 X103.103 Y108.907 E4.03753
G1 F1185.2 X103.221 Y108.735 E4.04456
G1 F1200 X103.499 Y108.49 E4.05688
G1 X103.801 Y108.365 E4.06775
G1 X104.17 Y108.308 E4.08017
G1 X104.858 Y108.323 E4.10306
G1 X105.52 Y108.322 E4.12508
G1 X105.913 Y108.345 E4.13817
G1 X106.209 Y108.379 E4.14808
G1 X106.68 Y108.471 E4.16404
G1 X107.251 Y108.679 E4.18426
G1 X107.687 Y109.008 E4.20242
G1 X108.116 Y109.467 E4.22332
G1 X108.483 Y110.173 E4.24978
G1 X108.615 Y110.633 E4.2657
G1 X108.684 Y110.984 E4.2776
G1 X108.734 Y111.401 E4.29157
G1 X108.745 Y111.875 E4.30734
G1 X108.729 Y112.253 E4.31992
G1 X108.674 Y112.774 E4.33735
G1 X109.039 Y112.647 E4.3502
G1 X109.6 Y112.658 E4.36886
G1 X110.029 Y112.806 E4.38396
G1 X110.45 Y113.123 E4.40148
G1 X110.634 Y113.347 E4.41113
G1 X110.799 Y113.702 E4.42415
G1 X110.981 Y113.407 E4.43568
G0 F6000 X110.951 Y113.256
G0 X110.685 Y114.339
G0 X110.722 Y114.86
G0 X111.553 Y115.706
G0 X112.629 Y115.074
G0 X114.508 Y115.753
G0 X114.234 Y117.592
G0 X115.933 Y118.169
G0 X117.683 Y116.368
G0 X118.438 Y114.337
G0 X118.861 Y113.617
G0 X119.936 Y115.701
G0 X121.81 Y115.742
G0 X120.585 Y116.72
G0 X118.8 Y117.765
G0 X116.948 Y118.515
G0 X115.042 Y118.992
G0 X111.862 Y119.353
G1 F1200 X112.713 Y119.371 E4.46399
G1 X113.255 Y119.356 E4.48202
G1 X114.053 Y119.295 E4.50864
G1 X114.474 Y119.244 E4.52274
G1 X115.18 Y119.131 E4.54652
G1 X115.635 Y119.039 E4.56196
G1 X116.105 Y118.927 E4.57803
G1 X116.789 Y118.735 E4.60166
G1 X117.325 Y118.561 E4.62041
G1 X117.762 Y118.398 E4.63592
G1 X118.345 Y118.155 E4.65693
G1 X118.893 Y117.899 E4.67704
G1 X119.561 Y117.547 E4.70216
G1 X120.018 Y117.281 E4.71975
G1 X120.372 Y117.058 E4.73366
G1 X120.857 Y116.729 E4.75315
G1 X121.339 Y116.37 E4.77314
G1 X121.676 Y116.1 E4.78751
G1 X121.971 Y115.848 E4.80041
G1 X122.295 Y115.555 E4.81494
G1 X121.189 Y115.554 E4.85172
G1 X120.733 Y115.544 E4.86689
G1 X120.127 Y115.59 E4.88711
G1 X119.621 Y115.423 E4.90483
G1 X119.313 Y115.09 E4.91992
G1 X119.21 Y114.881 E4.92767
G1 X119.126 Y114.457 E4.94204
G1 F977.6 X119.058 Y114.029 E4.95974
G1 F817.7 X119.291 Y113.507 E4.98764
G1 F877.5 X119.391 Y113.425 E4.99352
G1 F1061.9 X119.689 Y113.107 E5.0099
G1 F1200 X120.524 Y111.945 E5.05749
G1 X120.087 Y111.911 E5.07207
G1 X119.622 Y111.739 E5.08856
G1 X119.337 Y111.449 E5.10208
G1 X119.128 Y111.882 E5.11808
G1 X118.865 Y112.668 E5.14564
G1 F1061.9 X118.767 Y113.094 E5.16207
G1 F877.5 X118.747 Y113.278 E5.17049
G1 F820.5 X118.655 Y113.515 E5.18286
G1 F837.7 X118.563 Y113.753 E5.19501
G1 F839.2 X118.51 Y113.911 E5.20294
G1 F983.6 X118.284 Y114.29 E5.22084
G1 F1200 X117.908 Y115.338 E5.25788
G1 X117.533 Y116.31 E5.29253
G1 X117.363 Y116.703 E5.30677
G1 X117.235 Y116.962 E5.31638
G1 X116.958 Y117.398 E5.33356
G1 X116.619 Y117.691 E5.34846
G1 X116.26 Y117.884 E5.36202
G1 X115.819 Y118.036 E5.37753
G1 X115.457 Y118.088 E5.3897
G1 X115.063 Y118.055 E5.40285
G1 X114.851 Y117.981 E5.41032
G1 X114.59 Y117.803 E5.42082
G1 X114.381 Y117.526 E5.43237
G1 X114.235 Y117.183 E5.44476
G1 X114.212 Y116.821 E5.45683
G1 X114.293 Y116.497 E5.46794
G1 F1100.9 X114.478 Y116.207 E5.48041
G1 F958.1 X114.659 Y115.998 E5.49192
G1 F1032.3 X115.048 Y115.956 E5.50705
G1 F1200 X115.314 Y115.884 E5.51622
G1 X115.505 Y115.72 E5.52459
G1 X115.772 Y115.03 E5.5492
G1 X115.92 Y114.732 E5.56027
G1 X115.96 Y114.518 E5.56751
G1 X115.728 Y114.007 E5.58617
G1 X115.023 Y112.122 E5.65311
G1 X114.867 Y111.755 E5.66637
G1 X114.673 Y111.239 E5.68471
G1 X114.332 Y111.844 E5.70781
G1 X113.939 Y112.487 E5.73287
G1 X113.908 Y112.607 E5.73699
G1 X114.18 Y113.054 E5.7544
G1 X114.389 Y113.43 E5.7687
G1 X114.682 Y113.888 E5.78679
G1 X114.813 Y114.314 E5.80161
G1 X114.774 Y114.821 E5.81852
G1 X114.699 Y115.029 E5.82588
G1 X114.553 Y115.226 E5.83403
G1 F971.7 X114.381 Y115.488 E5.84691
G1 F872.7 X114.184 Y115.546 E5.8563
G1 F1052.6 X113.913 Y115.552 E5.86658
G1 F1200 X113.561 Y115.556 E5.87829
G1 X113.324 Y115.477 E5.88659
G1 X112.897 Y115.179 E5.90391
G1 X112.643 Y114.736 E5.9209
G1 X112.285 Y115.256 E5.9419
G1 X111.95 Y115.473 E5.95517
G1 X111.799 Y115.526 E5.96049
G1 X111.394 Y115.551 E5.97399
G1 X110.94 Y115.368 E5.99027
G1 X110.67 Y115.046 E6.00425
G1 X110.571 Y115.19 E6.01006
G1 X110.264 Y115.519 E6.02503
G1 X109.874 Y115.736 E6.03987
G1 X109.649 Y115.808 E6.04773
G1 X109.026 Y115.843 E6.06848
G1 X108.516 Y115.643 E6.0867
G1 X108.179 Y115.393 E6.10066
G1 X107.838 Y114.958 E6.11904
G1 X107.735 Y114.569 E6.13243
G1 X107.391 Y114.858 E6.14737
G1 X107.022 Y115.066 E6.16146
G1 X106.532 Y115.233 E6.17868
G1 X106.034 Y115.318 E6.19548
G1 X105.597 Y115.35 E6.21005
G1 X105.158 Y115.356 E6.22465
G1 X104.641 Y115.343 E6.24186
G1 X104.093 Y115.398 E6.26017
G1 X103.67 Y115.306 E6.27457
G1 X103.4 Y115.151 E6.28493
G1 X103.154 Y114.797 E6.29926
G1 X103.045 Y114.28 E6.31684
G1 X103.034 Y114.141 E6.32148
G1 F1108.5 X102.98 Y113.872 E6.33135
G1 F961.9 X102.925 Y113.603 E6.34275
G1 X102.777 Y113.836 E6.3542
G1 F1108.5 X102.628 Y114.069 E6.36416
G1 F1200 X102.572 Y114.214 E6.36933
G1 X102.265 Y114.667 E6.38753
G1 X101.99 Y114.945 E6.40053
G1 X101.68 Y115.171 E6.41329
G1 X101.208 Y115.408 E6.43086
G1 X100.587 Y115.524 E6.45187
G1 X99.928 Y115.527 E6.47379
G1 X99.425 Y115.439 E6.49077
G1 X99.044 Y115.318 E6.50407
G1 X98.655 Y115.101 E6.51888
G1 X98.302 Y114.703 E6.53658
G1 X98.161 Y114.364 E6.54879
G1 X98.129 Y113.968 E6.562
G1 X98.19 Y113.654 E6.57264
G1 X98.297 Y113.439 E6.58063
G1 X98.505 Y113.192 E6.59137
G1 X98.892 Y112.99 E6.60589
G1 F1185.2 X99.158 Y112.975 E6.61486
G1 F1162.2 X99.424 Y112.959 E6.62401
G1 F1126.8 X99.893 Y113.072 E6.6411
G1 F1090.9 X100.337 Y113.407 E6.66145
G1 F1073.8 X100.489 Y113.309 E6.66817
G1 X100.513 Y113.122 E6.67518
G1 X100.45 Y112.971 E6.68126
G1 F1071.4 X100.249 Y112.775 E6.69172
G1 F1083.5 X100.037 Y112.671 E6.70042
G1 F1113.7 X99.764 Y112.616 E6.7104
G1 F1134.8 X99.49 Y112.561 E6.72023
G1 F1173.6 X99.193 Y112.403 E6.73167
G1 F1200 X98.896 Y112.08 E6.74626
G1 X98.787 Y111.581 E6.76325
G1 X98.961 Y110.981 E6.78403
G1 X99.213 Y110.691 E6.79681
G1 X98.978 Y110.673 E6.80465
G1 X98.533 Y110.433 E6.82146
G1 X98.313 Y110.149 E6.83341
G1 F1197 X98.188 Y109.834 E6.84471
G1 X98.002 Y110.114 E6.85592
G1 F1200 X97.665 Y110.358 E6.86976
G1 X97.321 Y110.463 E6.88172
G1 X96.683 Y110.482 E6.90295
G1 X96.354 Y110.465 E6.91391
G1 X96.355 Y113.609 E7.01848
G1 X96.373 Y114.055 E7.03332
G1 X96.34 Y114.482 E7.04757
G1 X96.192 Y114.861 E7.0611
G1 X95.951 Y115.141 E7.07339
G1 X95.717 Y115.285 E7.08253
G1 X95.412 Y115.374 E7.09309
G1 X95.058 Y115.378 E7.10487
G1 X94.703 Y115.245 E7.11748
G1 X94.477 Y115.094 E7.12652
G1 X94.298 Y114.883 E7.13572
G1 X94.167 Y114.464 E7.15032
G1 X94.222 Y113.854 E7.17069
G1 X94.212 Y113.185 E7.19295
G1 X94.215 Y111.567 E7.24676
G1 X94.208 Y110.984 E7.26615
G1 X94.238 Y110.455 E7.28378
G1 X94.008 Y110.45 E7.29143
G1 X93.299 Y110.545 E7.31522
G1 X92.802 Y110.376 E7.33268
G1 X92.55 Y110.115 E7.34475
G1 X92.447 Y109.951 E7.35119
G1 X92.324 Y110.305 E7.36365
G1 X92.086 Y110.62 E7.37678
G1 X91.798 Y110.793 E7.38796
G1 X91.609 Y110.846 E7.39449
G1 X91.234 Y110.86 E7.40697
G1 X90.726 Y110.69 E7.42478
G1 X90.231 Y110.375 E7.4443
G1 X90.063 Y110.348 E7.44996
G1 X89.812 Y110.385 E7.4584
G1 X89.538 Y110.542 E7.4689
G1 X89.424 Y110.678 E7.4748
G1 X89.278 Y111.019 E7.48714
G1 X89.209 Y111.405 E7.50018
G1 X89.187 Y111.805 E7.51351
G1 X89.194 Y112.089 E7.52296
G1 X89.225 Y112.448 E7.53494
G1 X89.311 Y112.788 E7.5466
G1 X89.426 Y113.002 E7.55469
G1 X89.688 Y113.245 E7.56657
G1 X90.1 Y113.331 E7.58057
G1 X90.392 Y113.28 E7.59043
G1 X90.623 Y113.051 E7.60125
G1 X90.992 Y112.839 E7.6154
G1 X91.596 Y112.829 E7.63549
G1 X91.964 Y112.98 E7.64872
G1 X92.202 Y113.18 E7.65906
G1 X92.386 Y113.459 E7.67018
G1 X92.497 Y113.821 E7.68277
G1 X92.467 Y114.083 E7.69154
G1 X92.24 Y114.583 E7.70981
G1 X91.801 Y115.049 E7.7311
G1 X91.248 Y115.355 E7.75212
G1 X90.611 Y115.506 E7.7739
G1 X90.183 Y115.528 E7.78815
G1 X89.779 Y115.517 E7.80159
G1 X89.341 Y115.442 E7.81637
G1 X88.8 Y115.277 E7.83518
G1 X88.291 Y114.958 E7.85516
G1 X87.991 Y114.711 E7.86809
G1 X87.632 Y114.29 E7.88649
G1 X87.406 Y113.916 E7.90102
G1 X87.255 Y113.54 E7.9145
G1 X87.254 Y116.952 E8.02798
G1 X87.385 Y117.333 E8.04138
G1 X87.609 Y117.635 E8.05389
G1 X87.827 Y117.782 E8.06264
G1 X88.222 Y117.917 E8.07652
G1 X111.862 Y119.353 E8.86424
G0 F6000 X111.845 Y119.753
;TYPE:WALL-OUTER
G1 F1200 X112.724 Y119.771 E8.89348
