;FLAVOR:Marlin
;TIME:3363
;Filament used: 3.54198m
;Layer height: 0.2
;MINX:77.2
;MINY:77.206
;MINZ:0.2
;MAXX:142.8
;MAXY:142.794
;MAXZ:10
;Generated with Cura_SteamEngine main
M82 ;absolute extrusion mode
; Ender 3 Custom Start G-code
G92 E0 ; Reset Extruder
G28 ; Home all axes
M104 S175 ; Start heating up the nozzle most of the way
M190 S60 ; Start heating the bed, wait until target temperature reached
M109 S200 ; Finish heating the nozzle
G1 Z2.0 F3000 ; Move Z Axis up little to prevent scratching of Heat Bed
G1 X0.1 Y20 Z0.3 F5000.0 ; Move to start position
G1 X0.1 Y200.0 Z0.3 F1500.0 E15 ; Draw the first line
G1 X0.4 Y200.0 Z0.3 F5000.0 ; Move to side a little
G1 X0.4 Y20 Z0.3 F1500.0 E30 ; Draw the second line
G92 E0 ; Reset Extruder
G1 Z2.0 F3000 ; Move Z Axis up little to prevent scratching of Heat Bed
G1 X5 Y20 Z0.3 F5000.0 ; Move over to prevent blob squish
G92 E0
G92 E0
;LAYER_COUNT:50
;LAYER:0
M107
M205 X20 Y20
G0 F6000 X87.345 Y87.083 Z0.2
G0 X83.551 Y91.875
;TYPE:SKIRT
G1 F1200 X83.91 Y91.337 E0.02151
G1 X85.197 Y89.574 E0.09411
G1 X85.588 Y89.082 E0.11501
G1 X86.902 Y87.557 E0.18197
G1 X87.345 Y87.083 E0.20355
G1 X88.861 Y85.594 E0.27422
G1 X89.357 Y85.147 E0.29643
G1 X90.979 Y83.806 E0.36643
G1 X91.517 Y83.4 E0.38884
G1 X93.236 Y82.213 E0.45833
G1 X93.809 Y81.852 E0.48085
G1 X95.62 Y80.821 E0.55016
G1 X96.228 Y80.51 E0.57288
G1 X98.119 Y79.643 E0.64207
G1 X98.756 Y79.384 E0.66494
G1 X100.718 Y78.686 E0.7342
G1 X101.367 Y78.487 E0.75678
G1 X103.38 Y77.963 E0.82596
G1 X104.06 Y77.818 E0.84909
G1 X106.119 Y77.474 E0.91852
G1 X106.802 Y77.39 E0.94141
G1 X108.882 Y77.229 E1.01079
G1 X109.571 Y77.206 E1.03372
G1 X111.636 Y77.229 E1.10241
G1 X112.326 Y77.268 E1.1254
G1 X114.403 Y77.476 E1.19482
G1 X115.102 Y77.578 E1.21832
G1 X117.152 Y77.973 E1.28776
G1 X117.832 Y78.136 E1.31101
G1 X119.831 Y78.711 E1.3802
G1 X120.501 Y78.937 E1.40371
G1 X122.443 Y79.692 E1.47301
G1 X123.084 Y79.975 E1.49632
G1 X124.95 Y80.901 E1.5656
G1 X125.574 Y81.247 E1.58934
G1 X127.35 Y82.341 E1.65871
G1 X127.931 Y82.736 E1.68208
G1 X129.613 Y83.994 E1.75194
G1 X130.156 Y84.439 E1.77529
G1 X131.73 Y85.854 E1.84569
G1 X132.195 Y86.31 E1.86735
G1 X133.519 Y87.717 E1.93161
G1 X133.946 Y88.209 E1.95327
G1 X135.297 Y89.909 E2.0255
G1 X135.689 Y90.449 E2.04769
G1 X136.916 Y92.298 E2.1215
G1 X137.25 Y92.85 E2.14296
G1 X138.348 Y94.845 E2.2187
G1 X138.633 Y95.417 E2.23995
G1 X139.59 Y97.553 E2.3178
G1 X139.818 Y98.119 E2.3381
G1 X140.633 Y100.401 E2.41869
G1 X140.809 Y100.96 E2.43818
G1 X141.474 Y103.384 E2.52178
G1 X141.603 Y103.931 E2.54048
G1 X142.113 Y106.504 E2.62772
G1 X142.2 Y107.039 E2.64575
G1 X142.545 Y109.758 E2.73691
G1 X142.593 Y110.271 E2.75404
G1 X142.766 Y113.142 E2.84971
G1 X142.779 Y113.503 E2.86172
G1 X142.799 Y114.978 E2.91079
G1 X142.8 Y134.994 E3.57652
G1 X142.76 Y135.782 E3.60276
G1 X142.641 Y136.563 E3.62904
G1 X142.443 Y137.327 E3.65529
G1 X142.169 Y138.068 E3.68157
G1 X141.821 Y138.777 E3.70783
G1 X141.404 Y139.447 E3.73408
G1 X140.921 Y140.072 E3.76035
G1 X140.377 Y140.645 E3.78663
G1 X139.778 Y141.159 E3.81289
G1 X139.13 Y141.611 E3.83916
G1 X138.44 Y141.995 E3.86543
G1 X137.714 Y142.306 E3.8917
G1 X136.961 Y142.543 E3.91795
G1 X136.188 Y142.703 E3.94421
G1 X135.402 Y142.784 E3.97049
G1 X135 Y142.794 E3.98386
G1 X85 Y142.794 E5.64687
G1 X84.211 Y142.754 E5.67315
G1 X83.431 Y142.635 E5.69939
G1 X82.666 Y142.437 E5.72567
G1 X81.926 Y142.163 E5.75192
G1 X81.217 Y141.815 E5.77819
G1 X80.546 Y141.397 E5.80448
G1 X79.922 Y140.914 E5.83072
G1 X79.349 Y140.371 E5.85698
G1 X78.834 Y139.772 E5.88325
G1 X78.383 Y139.124 E5.90951
G1 X77.999 Y138.433 E5.93581
G1 X77.687 Y137.708 E5.96206
G1 X77.45 Y136.955 E5.98831
G1 X77.291 Y136.181 E6.0146
G1 X77.21 Y135.396 E6.04084
G1 X77.2 Y134.994 E6.05422
G1 X77.2 Y114.994 E6.71942
G1 X77.293 Y111.91 E6.82204
G1 X77.326 Y111.396 E6.83917
G1 X77.595 Y108.641 E6.93124
G1 X77.665 Y108.108 E6.94912
G1 X78.099 Y105.521 E7.03637
G1 X78.211 Y104.975 E7.0549
G1 X78.804 Y102.528 E7.13865
G1 X78.961 Y101.972 E7.15786
G1 X79.706 Y99.661 E7.23862
G1 X79.912 Y99.097 E7.25859
G1 X80.804 Y96.92 E7.33684
G1 X81.057 Y96.366 E7.3571
G1 X82.085 Y94.327 E7.43305
G1 X82.391 Y93.777 E7.45398
G1 X83.551 Y91.875 E7.52808
G0 F6000 X81.545 Y97.223
G1 F1200 X81.771 Y96.726 E7.54624
G1 X82.799 Y94.687 E7.62219
G1 X83.074 Y94.193 E7.64099
G1 X84.234 Y92.291 E7.71509
G1 X84.556 Y91.809 E7.73437
G1 X85.843 Y90.046 E7.80697
G1 X86.194 Y89.604 E7.82574
G1 X87.508 Y88.079 E7.8927
G1 X87.906 Y87.654 E7.91206
G1 X89.422 Y86.165 E7.98274
G1 X89.867 Y85.764 E8.00266
G1 X91.489 Y84.423 E8.07266
G1 X91.972 Y84.058 E8.0928
G1 X93.691 Y82.871 E8.16228
G1 X94.205 Y82.548 E8.18247
G1 X96.016 Y81.517 E8.25178
G1 X96.562 Y81.237 E8.27219
G1 X98.453 Y80.37 E8.34138
G1 X99.024 Y80.138 E8.36188
G1 X100.986 Y79.44 E8.43114
G1 X101.569 Y79.261 E8.45142
G1 X103.582 Y78.737 E8.52061
G1 X104.191 Y78.607 E8.54132
G1 X106.25 Y78.263 E8.61075
G1 X106.864 Y78.188 E8.63132
G1 X108.944 Y78.027 E8.70071
G1 X109.562 Y78.006 E8.72128
G1 X111.627 Y78.029 E8.78997
G1 X112.247 Y78.064 E8.81062
G1 X114.324 Y78.272 E8.88005
G1 X114.95 Y78.363 E8.90109
G1 X117 Y78.758 E8.97052
G1 X117.611 Y78.905 E8.99143
G1 X119.61 Y79.48 E9.06061
G1 X120.211 Y79.683 E9.08171
G1 X122.153 Y80.438 E9.15101
G1 X122.729 Y80.692 E9.17195
G1 X124.595 Y81.618 E9.24123
G1 X125.154 Y81.928 E9.26249
G1 X126.93 Y83.022 E9.33187
G1 X127.452 Y83.376 E9.35285
G1 X129.134 Y84.634 E9.42271
G1 X129.621 Y85.034 E9.44367
G1 X131.195 Y86.449 E9.51406
G1 X131.613 Y86.858 E9.53351
G1 X132.937 Y88.265 E9.59777
G1 X133.319 Y88.707 E9.6172
G1 X134.67 Y90.407 E9.68943
G1 X135.023 Y90.891 E9.70935
G1 X136.25 Y92.74 E9.78316
G1 X136.55 Y93.236 E9.80244
G1 X137.648 Y95.231 E9.87818
G1 X137.903 Y95.744 E9.89723
G1 X138.86 Y97.88 E9.97508
G1 X139.064 Y98.388 E9.99329
G1 X139.879 Y100.67 E10.07388
G1 X140.038 Y101.172 E10.0914
G1 X140.703 Y103.596 E10.175
G1 X140.818 Y104.087 E10.19177
G1 X141.328 Y106.66 E10.27901
G1 X141.406 Y107.14 E10.29519
G1 X141.751 Y109.859 E10.38635
G1 X141.794 Y110.319 E10.40171
G1 X141.967 Y113.19 E10.49738
G1 X141.979 Y113.514 E10.50816
G1 X141.999 Y114.978 E10.55686
G1 X142 Y134.994 E11.22259
G1 X141.96 Y135.741 E11.24747
G1 X141.841 Y136.479 E11.27234
G1 X141.643 Y137.201 E11.29724
G1 X141.37 Y137.897 E11.3221
G1 X141.024 Y138.56 E11.34698
G1 X140.609 Y139.183 E11.37187
G1 X140.13 Y139.757 E11.39674
G1 X139.592 Y140.277 E11.42163
G1 X139.002 Y140.737 E11.44651
G1 X138.366 Y141.131 E11.47139
G1 X137.692 Y141.456 E11.49628
G1 X136.987 Y141.706 E11.52116
G1 X136.26 Y141.88 E11.54602
G1 X135.518 Y141.975 E11.5709
G1 X135 Y141.994 E11.58814
G1 X85 Y141.994 E13.25115
G1 X84.253 Y141.954 E13.27603
G1 X83.515 Y141.835 E13.30089
G1 X82.793 Y141.637 E13.32579
G1 X82.097 Y141.364 E13.35066
G1 X81.434 Y141.017 E13.37555
G1 X80.811 Y140.602 E13.40045
G1 X80.237 Y140.123 E13.42531
G1 X79.716 Y139.586 E13.4502
G1 X79.257 Y138.996 E13.47506
G1 X78.862 Y138.36 E13.49996
G1 X78.538 Y137.686 E13.52483
G1 X78.288 Y136.981 E13.54971
G1 X78.114 Y136.253 E13.57461
G1 X78.019 Y135.511 E13.59949
G1 X78 Y134.994 E13.6167
G1 X78.003 Y114.775 E14.28918
G1 X78.092 Y111.935 E14.38369
G1 X78.122 Y111.474 E14.39905
G1 X78.391 Y108.719 E14.49112
G1 X78.454 Y108.241 E14.50716
G1 X78.888 Y105.654 E14.5944
G1 X78.989 Y105.163 E14.61108
G1 X79.582 Y102.716 E14.69482
G1 X79.723 Y102.217 E14.71207
G1 X80.468 Y99.906 E14.79282
G1 X80.653 Y99.4 E14.81074
G1 X81.545 Y97.223 E14.88899
G0 F6000 X80.359 Y102.905
G1 F1200 X80.484 Y102.463 E14.90427
G1 X81.229 Y100.152 E14.98503
G1 X81.393 Y99.703 E15.00093
G1 X82.285 Y97.526 E15.07918
G1 X82.486 Y97.086 E15.09527
G1 X83.514 Y95.047 E15.17122
G1 X83.757 Y94.61 E15.18785
G1 X84.917 Y92.708 E15.26195
G1 X85.202 Y92.28 E15.27905
G1 X86.489 Y90.517 E15.35165
G1 X86.8 Y90.126 E15.36826
G1 X88.114 Y88.601 E15.43522
G1 X88.467 Y88.225 E15.45237
G1 X89.983 Y86.736 E15.52305
G1 X90.376 Y86.381 E15.54066
G1 X91.998 Y85.04 E15.61066
G1 X92.426 Y84.716 E15.62851
G1 X94.145 Y83.529 E15.69799
G1 X94.601 Y83.243 E15.7159
G1 X96.412 Y82.212 E15.78521
G1 X96.895 Y81.964 E15.80327
G1 X98.786 Y81.097 E15.87246
G1 X99.292 Y80.892 E15.89062
G1 X101.254 Y80.194 E15.95988
G1 X101.77 Y80.035 E15.97784
G1 X103.783 Y79.511 E16.04702
G1 X104.323 Y79.396 E16.06538
G1 X106.382 Y79.052 E16.13482
G1 X106.926 Y78.985 E16.15305
G1 X109.006 Y78.824 E16.22243
G1 X109.553 Y78.806 E16.24064
G1 X111.618 Y78.829 E16.30932
G1 X112.167 Y78.86 E16.32761
G1 X114.244 Y79.068 E16.39704
G1 X114.799 Y79.149 E16.41569
G1 X116.849 Y79.544 E16.48513
G1 X117.39 Y79.674 E16.50364
G1 X119.389 Y80.249 E16.57282
G1 X119.922 Y80.428 E16.59152
G1 X121.864 Y81.183 E16.66082
G1 X122.373 Y81.408 E16.67933
G1 X124.239 Y82.334 E16.74862
G1 X124.735 Y82.609 E16.76748
G1 X126.511 Y83.703 E16.83686
G1 X126.972 Y84.017 E16.85541
G1 X128.654 Y85.275 E16.92527
G1 X129.086 Y85.629 E16.94385
G1 X130.66 Y87.044 E17.01424
G1 X131.03 Y87.406 E17.03146
G1 X132.354 Y88.813 E17.09572
G1 X132.693 Y89.205 E17.11295
G1 X134.044 Y90.905 E17.18518
G1 X134.356 Y91.334 E17.20282
G1 X135.583 Y93.183 E17.27663
G1 X135.849 Y93.622 E17.2937
G1 X136.947 Y95.617 E17.36944
G1 X137.173 Y96.071 E17.38631
G1 X138.13 Y98.207 E17.46415
G1 X138.311 Y98.657 E17.48029
G1 X139.126 Y100.939 E17.56088
G1 X139.266 Y101.384 E17.5764
G1 X139.931 Y103.808 E17.66
G1 X140.034 Y104.243 E17.67487
G1 X140.544 Y106.816 E17.76211
G1 X140.613 Y107.241 E17.77643
G1 X140.958 Y109.96 E17.86759
G1 X140.996 Y110.367 E17.88119
G1 X141.169 Y113.238 E17.97685
G1 X141.179 Y113.525 E17.9864
G1 X141.199 Y114.978 E18.03473
G1 X141.2 Y134.994 E18.70047
G1 X141.16 Y135.697 E18.72389
G1 X141.041 Y136.39 E18.74727
G1 X140.843 Y137.066 E18.7707
G1 X140.571 Y137.715 E18.79411
G1 X140.227 Y138.329 E18.81752
G1 X139.815 Y138.9 E18.84093
G1 X139.341 Y139.421 E18.86436
G1 X138.811 Y139.884 E18.88777
G1 X138.232 Y140.285 E18.91119
G1 X137.611 Y140.617 E18.93462
G1 X136.957 Y140.877 E18.95802
G1 X136.278 Y141.061 E18.98142
G1 X135.582 Y141.167 E19.00484
G1 X135 Y141.194 E19.02422
G1 X85 Y141.194 E20.68722
G1 X84.297 Y141.154 E20.71064
G1 X83.603 Y141.035 E20.73406
G1 X82.928 Y140.837 E20.75746
G1 X82.279 Y140.565 E20.78086
G1 X81.665 Y140.22 E20.80429
G1 X81.094 Y139.809 E20.82769
G1 X80.573 Y139.335 E20.85111
G1 X80.109 Y138.805 E20.87454
G1 X79.709 Y138.226 E20.89795
G1 X79.377 Y137.605 E20.92137
G1 X79.117 Y136.951 E20.94478
G1 X78.933 Y136.271 E20.96821
G1 X78.827 Y135.575 E20.99162
G1 X78.8 Y134.994 E21.01097
G1 X78.803 Y114.8 E21.68262
G1 X78.892 Y111.96 E21.77713
G1 X78.918 Y111.551 E21.79076
G1 X79.187 Y108.796 E21.88283
G1 X79.243 Y108.373 E21.89702
G1 X79.677 Y105.786 E21.98427
G1 X79.766 Y105.352 E21.999
G1 X80.359 Y102.905 E22.08274
G0 F6000 X79.585 Y108.835
G1 F1200 X79.638 Y108.439 E22.09603
G1 X80.072 Y105.852 E22.18328
G1 X80.155 Y105.446 E22.19706
G1 X80.748 Y102.999 E22.28081
G1 X80.865 Y102.585 E22.29512
G1 X81.61 Y100.274 E22.37587
G1 X81.763 Y99.855 E22.39071
G1 X82.655 Y97.678 E22.46896
G1 X82.843 Y97.266 E22.48402
G1 X83.871 Y95.227 E22.55997
G1 X84.098 Y94.818 E22.57553
G1 X85.258 Y92.916 E22.64963
G1 X85.525 Y92.516 E22.66562
G1 X86.812 Y90.753 E22.73822
G1 X87.103 Y90.387 E22.75377
G1 X88.417 Y88.862 E22.82073
G1 X88.747 Y88.51 E22.83678
G1 X90.263 Y87.021 E22.90745
G1 X90.631 Y86.689 E22.92394
G1 X92.253 Y85.348 E22.99393
G1 X92.653 Y85.045 E23.01062
G1 X94.372 Y83.858 E23.0801
G1 X94.798 Y83.591 E23.09683
G1 X96.609 Y82.56 E23.16614
G1 X97.062 Y82.328 E23.18307
G1 X98.953 Y81.461 E23.25226
G1 X99.426 Y81.269 E23.26923
G1 X101.388 Y80.571 E23.3385
G1 X101.871 Y80.422 E23.35531
G1 X103.884 Y79.898 E23.42449
G1 X104.389 Y79.79 E23.44167
G1 X106.448 Y79.446 E23.5111
G1 X106.956 Y79.384 E23.52812
G1 X109.036 Y79.223 E23.59751
G1 X109.549 Y79.206 E23.61458
G1 X111.614 Y79.229 E23.68327
G1 X112.127 Y79.258 E23.70036
G1 X114.204 Y79.466 E23.76979
G1 X114.723 Y79.542 E23.78723
G1 X116.773 Y79.937 E23.85667
G1 X117.279 Y80.058 E23.87397
G1 X119.278 Y80.633 E23.94316
G1 X119.777 Y80.801 E23.96067
G1 X121.719 Y81.556 E24.02997
G1 X122.195 Y81.767 E24.04729
G1 X124.061 Y82.693 E24.11657
G1 X124.525 Y82.95 E24.13421
G1 X126.301 Y84.044 E24.20359
G1 X126.733 Y84.337 E24.22095
G1 X128.415 Y85.595 E24.29081
G1 X128.819 Y85.927 E24.3082
G1 X130.393 Y87.342 E24.3786
G1 X130.739 Y87.68 E24.39469
G1 X132.063 Y89.087 E24.45895
G1 X132.38 Y89.453 E24.47505
G1 X133.731 Y91.153 E24.54727
G1 X134.023 Y91.555 E24.5638
G1 X135.25 Y93.404 E24.63761
G1 X135.498 Y93.814 E24.65354
G1 X136.596 Y95.809 E24.72928
G1 X136.808 Y96.235 E24.74511
G1 X137.765 Y98.371 E24.82296
G1 X137.934 Y98.791 E24.83802
G1 X138.749 Y101.073 E24.91861
G1 X138.88 Y101.49 E24.93315
G1 X139.545 Y103.914 E25.01675
G1 X139.641 Y104.32 E25.03063
G1 X140.151 Y106.893 E25.11787
G1 X140.216 Y107.291 E25.13128
G1 X140.561 Y110.01 E25.22244
G1 X140.596 Y110.391 E25.23517
G1 X140.769 Y113.262 E25.33083
G1 X140.779 Y113.53 E25.33975
G1 X140.799 Y114.978 E25.38792
G1 X140.8 Y134.994 E26.05365
G1 X140.76 Y135.673 E26.07627
G1 X140.641 Y136.344 E26.09894
G1 X140.444 Y136.996 E26.12159
G1 X140.172 Y137.62 E26.14423
G1 X139.828 Y138.208 E26.16689
G1 X139.418 Y138.751 E26.18952
G1 X138.948 Y139.243 E26.21215
G1 X138.422 Y139.677 E26.23483
G1 X137.85 Y140.045 E26.25746
G1 X137.239 Y140.345 E26.28009
G1 X136.596 Y140.57 E26.30275
G1 X135.932 Y140.719 E26.32539
G1 X135 Y140.794 E26.35649
G1 X85 Y140.794 E28.01949
G1 X84.32 Y140.754 E28.04215
G1 X83.65 Y140.635 E28.06478
G1 X82.998 Y140.438 E28.08743
G1 X82.374 Y140.166 E28.11008
G1 X81.786 Y139.822 E28.13273
G1 X81.242 Y139.412 E28.15539
G1 X80.751 Y138.941 E28.17802
G1 X80.317 Y138.416 E28.20068
G1 X79.948 Y137.844 E28.22332
G1 X79.649 Y137.232 E28.24597
G1 X79.424 Y136.59 E28.2686
G1 X79.275 Y135.925 E28.29126
G1 X79.2 Y134.994 E28.32233
G1 X79.2 Y114.994 E28.98753
G1 X79.292 Y111.972 E29.08809
G1 X79.316 Y111.59 E29.10082
G1 X79.585 Y108.835 E29.19289
G0 F6000 X79.692 Y111.985
G1 F1200 X79.715 Y111.629 E29.20475
G1 X79.984 Y108.874 E29.29682
G1 X80.032 Y108.506 E29.30916
G1 X80.466 Y105.919 E29.39641
G1 X80.544 Y105.54 E29.40928
G1 X81.137 Y103.093 E29.49302
G1 X81.245 Y102.708 E29.50632
G1 X81.99 Y100.397 E29.58708
G1 X82.133 Y100.007 E29.6009
G1 X83.025 Y97.83 E29.67915
G1 X83.2 Y97.446 E29.69318
G1 X84.228 Y95.407 E29.76913
G1 X84.44 Y95.026 E29.78363
G1 X85.6 Y93.124 E29.85773
G1 X85.849 Y92.752 E29.87262
G1 X87.136 Y90.989 E29.94522
G1 X87.406 Y90.648 E29.95969
G1 X88.72 Y89.123 E30.02664
G1 X89.027 Y88.795 E30.04158
G1 X90.543 Y87.306 E30.11226
G1 X90.886 Y86.997 E30.12761
G1 X92.508 Y85.656 E30.19761
G1 X92.881 Y85.374 E30.21316
G1 X94.6 Y84.187 E30.28264
G1 X94.996 Y83.938 E30.2982
G1 X96.807 Y82.907 E30.36751
G1 X97.228 Y82.691 E30.38325
G1 X99.119 Y81.824 E30.45244
G1 X99.56 Y81.645 E30.46827
G1 X101.522 Y80.947 E30.53753
G1 X101.972 Y80.809 E30.55319
G1 X103.985 Y80.285 E30.62237
G1 X104.455 Y80.185 E30.63836
G1 X106.514 Y79.841 E30.70779
G1 X106.987 Y79.783 E30.72364
G1 X109.067 Y79.622 E30.79303
G1 X109.544 Y79.606 E30.8089
G1 X111.609 Y79.629 E30.87759
G1 X112.087 Y79.656 E30.89351
G1 X114.164 Y79.864 E30.96294
G1 X114.648 Y79.935 E30.97921
G1 X116.698 Y80.33 E31.04864
G1 X117.169 Y80.442 E31.06475
G1 X119.168 Y81.017 E31.13393
G1 X119.632 Y81.174 E31.15022
G1 X121.574 Y81.929 E31.21952
G1 X122.017 Y82.125 E31.23563
G1 X123.883 Y83.051 E31.30492
G1 X124.315 Y83.29 E31.32134
G1 X126.091 Y84.384 E31.39072
G1 X126.493 Y84.658 E31.4069
G1 X128.175 Y85.916 E31.47676
G1 X128.551 Y86.224 E31.49292
G1 X130.125 Y87.639 E31.56332
G1 X130.448 Y87.954 E31.57833
G1 X131.772 Y89.361 E31.64258
G1 X132.067 Y89.702 E31.65758
G1 X133.418 Y91.402 E31.7298
G1 X133.689 Y91.776 E31.74517
G1 X134.916 Y93.625 E31.81897
G1 X135.148 Y94.007 E31.83384
G1 X136.246 Y96.002 E31.90958
G1 X136.443 Y96.398 E31.92429
G1 X137.4 Y98.534 E32.00214
G1 X137.557 Y98.926 E32.01618
G1 X138.372 Y101.208 E32.09678
G1 X138.495 Y101.595 E32.11028
G1 X139.16 Y104.019 E32.19388
G1 X139.249 Y104.398 E32.20683
G1 X139.759 Y106.971 E32.29408
G1 X139.819 Y107.341 E32.30654
G1 X140.164 Y110.06 E32.3977
