;FLAVOR:Marlin
;TIME:1889
;Filament used: 1.34181m
;Layer height: 0.2
;MINX:100.2
;MINY:100.2
;MINZ:0.2
;MAXX:119.8
;MAXY:119.8
;MAXZ:20
;Generated with Cura_SteamEngine 4.12.1
M140 S60
M105
M190 S60
M104 S200
M105
M109 S200
M82 ;absolute extrusion mode
; Ender 3 Custom Start G-code
G92 E0
G92 E0
G1 F1500 E-6.5
;LAYER_COUNT:100
;LAYER:0
M107
;MESH:xyzCalibration_cube.stl
G0 F6000 X119.4 Y119.4 Z0.2
;TYPE:WALL-INNER
G1 F1500 E0
G1 F1200 X100.6 Y119.4 E0.62529
G1 X100.6 Y100.6 E1.25058
G1 X119.4 Y100.6 E1.87587
G1 X119.4 Y119.4 E2.50116
G0 F6000 X119.8 Y119.8
;TYPE:WALL-OUTER
G1 F1200 X100.2 Y119.8 E3.15306
G1 X100.2 Y100.2 E3.80496
G1 X119.8 Y100.2 E4.45686
G1 X119.8 Y119.8 E5.10876
G0 F6000 X119.53 Y119.53
G0 X119.29 Y119.01
G0 X119.01 Y119.01
;TYPE:SKIN
G1 F1200 X100.99 Y119.01 E5.7081
G1 X100.99 Y100.99 E6.30745
G1 X119.01 Y100.99 E6.9068
G1 X119.01 Y119.01 E7.50615
G0 F6000 X119.29 Y119.01
G0 X119.29 Y101.313
G0 X118.849 Y101.313
G1 F1200 X118.686 Y101.15 E7.51381
G0 F6000 X118.12 Y101.15
G1 F1200 X118.849 Y101.879 E7.5481
G0 F6000 X118.849 Y102.444
G1 F1200 X117.555 Y101.15 E7.60897
G0 F6000 X116.989 Y101.15
G1 F1200 X118.849 Y103.01 E7.69646
G0 F6000 X118.849 Y103.576
G1 F1200 X116.423 Y101.15 E7.81057
G0 F6000 X115.858 Y101.15
G1 F1200 X118.849 Y104.141 E7.95126
G0 F6000 X118.849 Y104.707
G1 F1200 X115.292 Y101.15 E8.11857
G0 F6000 X114.726 Y101.15
G1 F1200 X118.849 Y105.273 E8.3125
G0 F6000 X118.849 Y105.839
G1 F1200 X114.16 Y101.15 E8.53306
G0 F6000 X113.595 Y101.15
G1 F1200 X118.849 Y106.404 E8.78019
G0 F6000 X118.849 Y106.97
G1 F1200 X113.029 Y101.15 E9.05394
G0 F6000 X112.463 Y101.15
G1 F1200 X118.849 Y107.536 E9.35432
G0 F6000 X118.849 Y108.101
G1 F1200 X111.898 Y101.15 E9.68128
G0 F6000 X111.332 Y101.15
G1 F1200 X118.849 Y108.667 E10.03485
G0 F6000 X118.849 Y109.233
G1 F1200 X110.766 Y101.15 E10.41505
G0 F6000 X110.201 Y101.15
G1 F1200 X118.849 Y109.798 E10.82183
G0 F6000 X118.849 Y110.364
G1 F1200 X109.635 Y101.15 E11.25523
G0 F6000 X109.069 Y101.15
G1 F1200 X118.849 Y110.93 E11.71525
G0 F6000 X118.849 Y111.495
G1 F1200 X108.504 Y101.15 E12.20184
G0 F6000 X107.938 Y101.15
G1 F1200 X118.849 Y112.061 E12.71506
G0 F6000 X118.849 Y112.627
G1 F1200 X107.372 Y101.15 E13.25491
G0 F6000 X106.807 Y101.15
G1 F1200 X118.849 Y113.192 E13.82133
G0 F6000 X118.849 Y113.758
G1 F1200 X106.241 Y101.15 E14.41437
G0 F6000 X105.675 Y101.15
G1 F1200 X118.849 Y114.324 E15.03403
G0 F6000 X118.849 Y114.89
G1 F1200 X105.11 Y101.15 E15.6803
G0 F6000 X104.544 Y101.15
G1 F1200 X118.849 Y115.455 E16.35316
G0 F6000 X118.849 Y116.021
G1 F1200 X103.978 Y101.15 E17.05265
G0 F6000 X103.412 Y101.15
G1 F1200 X118.849 Y116.587 E17.77875
G0 F6000 X118.849 Y117.152
G1 F1200 X102.847 Y101.15 E18.53144
G0 F6000 X102.281 Y101.15
G1 F1200 X118.849 Y117.718 E19.31075
G0 F6000 X118.849 Y118.284
G1 F1200 X101.715 Y101.15 E20.11668
G0 F6000 X101.149 Y101.149
G1 F1200 X118.849 Y118.849 E20.94923
G0 F6000 X118.283 Y118.849
G1 F1200 X101.149 Y101.715 E21.75516
G0 F6000 X101.149 Y102.28
G1 F1200 X117.717 Y118.849 E22.53449
G0 F6000 X117.152 Y118.849
G1 F1200 X101.149 Y102.846 E23.28723
G0 F6000 X101.149 Y103.412
G1 F1200 X116.586 Y118.849 E24.01334
G0 F6000 X116.02 Y118.849
G1 F1200 X101.149 Y103.977 E24.71285
G0 F6000 X101.149 Y104.543
G1 F1200 X115.454 Y118.849 E25.38573
G0 F6000 X114.889 Y118.849
G1 F1200 X101.149 Y105.109 E26.03202
G0 F6000 X101.149 Y105.674
G1 F1200 X114.323 Y118.849 E26.65171
G0 F6000 X113.757 Y118.849
G1 F1200 X101.149 Y106.24 E27.24477
G0 F6000 X101.149 Y106.806
G1 F1200 X113.192 Y118.849 E27.81124
G0 F6000 X112.626 Y118.849
G1 F1200 X101.149 Y107.372 E28.35108
G0 F6000 X101.149 Y107.937
G1 F1200 X112.06 Y118.849 E28.86433
G0 F6000 X111.495 Y118.849
G1 F1200 X101.149 Y108.503 E29.35097
G0 F6000 X101.149 Y109.069
G1 F1200 X110.929 Y118.849 E29.81099
G0 F6000 X110.363 Y118.849
G1 F1200 X101.149 Y109.634 E30.24441
G0 F6000 X101.149 Y110.2
G1 F1200 X109.798 Y118.849 E30.65124
G0 F6000 X109.232 Y118.849
G1 F1200 X101.149 Y110.766 E31.03143
G0 F6000 X101.149 Y111.331
G1 F1200 X108.666 Y118.849 E31.38503
G0 F6000 X108.101 Y118.849
G1 F1200 X101.149 Y111.897 E31.71204
G0 F6000 X101.149 Y112.463
G1 F1200 X107.535 Y118.849 E32.01241
G0 F6000 X106.969 Y118.849
G1 F1200 X101.149 Y113.028 E32.28619
G0 F6000 X101.149 Y113.594
G1 F1200 X106.404 Y118.849 E32.53337
G0 F6000 X105.838 Y118.849
G1 F1200 X101.149 Y114.16 E32.75393
G0 F6000 X101.149 Y114.725
G1 F1200 X105.272 Y118.849 E32.94788
G0 F6000 X104.706 Y118.849
G1 F1200 X101.149 Y115.291 E33.11522
G0 F6000 X101.149 Y115.857
G1 F1200 X104.141 Y118.849 E33.25595
G0 F6000 X103.575 Y118.849
G1 F1200 X101.149 Y116.423 E33.37006
G0 F6000 X101.149 Y116.988
G1 F1200 X103.009 Y118.849 E33.45758
G0 F6000 X102.444 Y118.849
G1 F1200 X101.149 Y117.554 E33.51849
G0 F6000 X101.149 Y118.12
G1 F1200 X101.878 Y118.849 E33.55278
G0 F6000 X101.312 Y118.849
G1 F1200 X101.149 Y118.685 E33.56047
G0 F6000 X100.8 Y118.685
;MESH:NONMESH
G0 F300 X100.8 Y118.685 Z0.4
G0 F6000 X100.71 Y118.685
G0 X100.782 Y119.218
G0 X119.4 Y119.4
;TIME_ELAPSED:60.645684
;LAYER:1
M106 S85
;TYPE:WALL-INNER
;MESH:xyzCalibration_cube.stl
G1 F1350 X100.6 Y119.4 E34.18576
G1 X100.6 Y100.6 E34.81105
G1 X119.4 Y100.6 E35.43634
G1 X119.4 Y119.4 E36.06163
G0 F7500 X119.8 Y119.8
;TYPE:WALL-OUTER
G1 F1350 X100.2 Y119.8 E36.71353
G1 X100.2 Y100.2 E37.36543
G1 X119.8 Y100.2 E38.01733
G1 X119.8 Y119.8 E38.66923
G0 F7500 X119.53 Y119.53
G0 X119.29 Y119.01
G0 X119.01 Y119.01
;TYPE:SKIN
G1 F1350 X100.99 Y119.01 E39.26857
G1 X100.99 Y100.99 E39.86792
G1 X119.01 Y100.99 E40.46727
G1 X119.01 Y119.01 E41.06662
G0 F7500 X118.738 Y118.849
G1 F1350 X118.849 Y118.738 E41.07184
G0 F7500 X118.849 Y118.173
G1 F1350 X118.172 Y118.849 E41.10366
G0 F7500 X117.606 Y118.849
G1 F1350 X118.849 Y117.607 E41.1621
G0 F7500 X118.849 Y117.041
G1 F1350 X117.041 Y118.849 E41.24714
G0 F7500 X116.475 Y118.849
G1 F1350 X118.849 Y116.476 E41.35879
G0 F7500 X118.849 Y115.91
G1 F1350 X115.909 Y118.849 E41.49705
G0 F7500 X115.343 Y118.849
G1 F1350 X118.849 Y115.344 E41.66194
G0 F7500 X118.849 Y114.778
G1 F1350 X114.778 Y118.849 E41.85343
G0 F7500 X114.212 Y118.849
G1 F1350 X118.849 Y114.213 E42.07151
G0 F7500 X118.849 Y113.647
G1 F1350 X113.646 Y118.849 E42.31622
G0 F7500 X113.081 Y118.849
G1 F1350 X118.849 Y113.081 E42.58753
G0 F7500 X118.849 Y112.516
G1 F1350 X112.515 Y118.849 E42.88544
G0 F7500 X111.949 Y118.849
G1 F1350 X118.849 Y111.95 E43.20997
G0 F7500 X118.849 Y111.384
G1 F1350 X111.384 Y118.849 E43.5611
G0 F7500 X110.818 Y118.849
G1 F1350 X118.849 Y110.819 E43.93883
G0 F7500 X118.849 Y110.253
G1 F1350 X110.252 Y118.849 E44.34319
G0 F7500 X109.687 Y118.849
G1 F1350 X118.849 Y109.687 E44.77414
G0 F7500 X118.849 Y109.122
G1 F1350 X109.121 Y118.849 E45.23169
G0 F7500 X108.555 Y118.849
G1 F1350 X118.849 Y108.556 E45.71587
G0 F7500 X118.849 Y107.99
G1 F1350 X107.99 Y118.849 E46.22664
G0 F7500 X107.424 Y118.849
G1 F1350 X118.849 Y107.425 E46.76401
G0 F7500 X118.849 Y106.859
G1 F1350 X106.858 Y118.849 E47.32801
G0 F7500 X106.292 Y118.849
G1 F1350 X118.849 Y106.293 E47.91863
G0 F7500 X118.849 Y105.728
G1 F1350 X105.727 Y118.849 E48.53582
G0 F7500 X105.161 Y118.849
G1 F1350 X118.849 Y105.162 E49.17964
G0 F7500 X118.849 Y104.596
G1 F1350 X104.595 Y118.849 E49.85008
G0 F7500 X104.03 Y118.849
G1 F1350 X118.849 Y104.03 E50.54712
G0 F7500 X118.849 Y103.465
G1 F1350 X103.464 Y118.849 E51.27076
G0 F7500 X102.898 Y118.849
G1 F1350 X118.849 Y102.899 E52.02102
G0 F7500 X118.849 Y102.333
G1 F1350 X102.333 Y118.849 E52.79789
G0 F7500 X101.767 Y118.849
G1 F1350 X118.849 Y101.768 E53.60135
G0 F7500 X118.849 Y101.202
G1 F1350 X101.201 Y118.849 E54.43143
G0 F7500 X101.15 Y118.335
G1 F1350 X118.336 Y101.149 E55.23981
G0 F7500 X117.77 Y101.149
G1 F1350 X101.15 Y117.77 E56.02159
G0 F7500 X101.15 Y117.204
G1 F1350 X117.205 Y101.149 E56.77676
G0 F7500 X116.639 Y101.149
G1 F1350 X101.15 Y116.638 E57.50532
G0 F7500 X101.15 Y116.072
G1 F1350 X116.073 Y101.149 E58.20725
G0 F7500 X115.508 Y101.149
G1 F1350 X101.15 Y115.507 E58.88261
G0 F7500 X101.15 Y114.941
G1 F1350 X114.942 Y101.149 E59.53134
G0 F7500 X114.376 Y101.149
G1 F1350 X101.15 Y114.375 E60.15345
G0 F7500 X101.15 Y113.81
G1 F1350 X113.81 Y101.149 E60.74896
G0 F7500 X113.245 Y101.149
G1 F1350 X101.15 Y113.244 E61.31787
G0 F7500 X101.15 Y112.678
G1 F1350 X112.679 Y101.149 E61.86016
G0 F7500 X112.113 Y101.149
G1 F1350 X101.15 Y112.113 E62.37585
G0 F7500 X101.15 Y111.547
G1 F1350 X111.548 Y101.149 E62.86494
G0 F7500 X110.982 Y101.149
G1 F1350 X101.15 Y110.981 E63.32741
G0 F7500 X101.15 Y110.416
G1 F1350 X110.416 Y101.149 E63.76328
G0 F7500 X109.851 Y101.149
G1 F1350 X101.15 Y109.85 E64.17255
G0 F7500 X101.15 Y109.284
G1 F1350 X109.285 Y101.149 E64.55519
G0 F7500 X108.719 Y101.149
G1 F1350 X101.15 Y108.719 E64.91124
G0 F7500 X101.15 Y108.153
G1 F1350 X108.154 Y101.149 E65.24068
G0 F7500 X107.588 Y101.149
G1 F1350 X101.15 Y107.587 E65.54351
G0 F7500 X101.15 Y107.022
G1 F1350 X107.022 Y101.149 E65.81973
G0 F7500 X106.457 Y101.149
G1 F1350 X101.15 Y106.456 E66.06936
G0 F7500 X101.15 Y105.89
G1 F1350 X105.891 Y101.149 E66.29236
G0 F7500 X105.325 Y101.149
G1 F1350 X101.15 Y105.324 E66.48874
G0 F7500 X101.15 Y104.759
G1 F1350 X104.759 Y101.149 E66.65852
G0 F7500 X104.194 Y101.149
G1 F1350 X101.15 Y104.193 E66.8017
G0 F7500 X101.15 Y103.627
G1 F1350 X103.628 Y101.149 E66.91826
G0 F7500 X103.062 Y101.149
G1 F1350 X101.15 Y103.062 E67.00822
G0 F7500 X101.15 Y102.496
G1 F1350 X102.497 Y101.149 E67.07157
G0 F7500 X101.931 Y101.149
G1 F1350 X101.15 Y101.93 E67.10831
G0 F7500 X101.15 Y101.365
G1 F1350 X101.365 Y101.149 E67.11845
G0 F7500 X101.365 Y100.8
G1 F1500 E60.61845
;MESH:NONMESH
G0 F300 X101.365 Y100.8 Z0.6
G0 F7500 X101.365 Y100.71
G0 X119.218 Y100.782
G0 X119.4 Y119.4
;TIME_ELAPSED:111.749671
;LAYER:2
M106 S170
;TYPE:WALL-INNER
;MESH:xyzCalibration_cube.stl
G1 F1500 E67.11845
G1 X100.6 Y119.4 E67.74374
G1 X100.6 Y100.6 E68.36903
G1 X119.4 Y100.6 E68.99432
G1 X119.4 Y119.4 E69.61961
G0 F9000 X119.8 Y119.8
;TYPE:WALL-OUTER
G1 F1500 X100.2 Y119.8 E70.27151
G1 X100.2 Y100.2 E70.92341
G1 X119.8 Y100.2 E71.5753
G1 X119.8 Y119.8 E72.2272
G0 F9000 X119.53 Y119.53
G0 X119.29 Y119.01
G0 X119.01 Y119.01
;TYPE:SKIN
G1 F1500 X100.99 Y119.01 E72.82655
G1 X100.99 Y100.99 E73.4259
G1 X119.01 Y100.99 E74.02525
G1 X119.01 Y119.01 E74.62459
G0 F9000 X119.29 Y119.01
G0 X119.29 Y101.313
G0 X118.849 Y101.313
G1 F1500 X118.686 Y101.15 E74.63226
G0 F9000 X118.12 Y101.15
G1 F1500 X118.849 Y101.879 E74.66655
G0 F9000 X118.849 Y102.444
G1 F1500 X117.555 Y101.15 E74.72742
G0 F9000 X116.989 Y101.15
G1 F1500 X118.849 Y103.01 E74.8149
G0 F9000 X118.849 Y103.576
G1 F1500 X116.423 Y101.15 E74.92902
G0 F9000 X115.858 Y101.15
G1 F1500 X118.849 Y104.141 E75.0697
G0 F9000 X118.849 Y104.707
G1 F1500 X115.292 Y101.15 E75.23701
G0 F9000 X114.726 Y101.15
G1 F1500 X118.849 Y105.273 E75.43095
G0 F9000 X118.849 Y105.839
G1 F1500 X114.16 Y101.15 E75.6515
G0 F9000 X113.595 Y101.15
G1 F1500 X118.849 Y106.404 E75.89864
G0 F9000 X118.849 Y106.97
G1 F1500 X113.029 Y101.15 E76.17239
G0 F9000 X112.463 Y101.15
G1 F1500 X118.849 Y107.536 E76.47277
G0 F9000 X118.849 Y108.101
G1 F1500 X111.898 Y101.15 E76.79972
G0 F9000 X111.332 Y101.15
G1 F1500 X118.849 Y108.667 E77.1533
G0 F9000 X118.849 Y109.233
G1 F1500 X110.766 Y101.15 E77.5335
G0 F9000 X110.201 Y101.15
G1 F1500 X118.849 Y109.798 E77.94027
G0 F9000 X118.849 Y110.364
G1 F1500 X109.635 Y101.15 E78.37367
G0 F9000 X109.069 Y101.15
G1 F1500 X118.849 Y110.93 E78.83369
G0 F9000 X118.849 Y111.495
G1 F1500 X108.504 Y101.15 E79.32029
G0 F9000 X107.938 Y101.15
G1 F1500 X118.849 Y112.061 E79.83351
G0 F9000 X118.849 Y112.627
G1 F1500 X107.372 Y101.15 E80.37335
G0 F9000 X106.807 Y101.15
G1 F1500 X118.849 Y113.192 E80.93977
G0 F9000 X118.849 Y113.758
G1 F1500 X106.241 Y101.15 E81.53281
G0 F9000 X105.675 Y101.15
G1 F1500 X118.849 Y114.324 E82.15248
G0 F9000 X118.849 Y114.89
G1 F1500 X105.11 Y101.15 E82.79874
G0 F9000 X104.544 Y101.15
G1 F1500 X118.849 Y115.455 E83.47161
G0 F9000 X118.849 Y116.021
G1 F1500 X103.978 Y101.15 E84.17109
G0 F9000 X103.412 Y101.15
G1 F1500 X118.849 Y116.587 E84.8972
G0 F9000 X118.849 Y117.152
G1 F1500 X102.847 Y101.15 E85.64989
G0 F9000 X102.281 Y101.15
G1 F1500 X118.849 Y117.718 E86.42919
G0 F9000 X118.849 Y118.284
G1 F1500 X101.715 Y101.15 E87.23512
G0 F9000 X101.149 Y101.149
G1 F1500 X118.849 Y118.849 E88.06768
G0 F9000 X118.283 Y118.849
G1 F1500 X101.149 Y101.715 E88.87361
G0 F9000 X101.149 Y102.28
G1 F1500 X117.717 Y118.849 E89.65294
G0 F9000 X117.152 Y118.849
G1 F1500 X101.149 Y102.846 E90.40567
G0 F9000 X101.149 Y103.412
G1 F1500 X116.586 Y118.849 E91.13178
G0 F9000 X116.02 Y118.849
G1 F1500 X101.149 Y103.977 E91.83129
G0 F9000 X101.149 Y104.543
G1 F1500 X115.454 Y118.849 E92.50418
G0 F9000 X114.889 Y118.849
G1 F1500 X101.149 Y105.109 E93.15047
G0 F9000 X101.149 Y105.674
G1 F1500 X114.323 Y118.849 E93.77015
G0 F9000 X113.757 Y118.849
G1 F1500 X101.149 Y106.24 E94.36322
G0 F9000 X101.149 Y106.806
G1 F1500 X113.192 Y118.849 E94.92969
G0 F9000 X112.626 Y118.849
G1 F1500 X101.149 Y107.372 E95.46953
G0 F9000 X101.149 Y107.937
G1 F1500 X112.06 Y118.849 E95.98277
G0 F9000 X111.495 Y118.849
G1 F1500 X101.149 Y108.503 E96.46942
G0 F9000 X101.149 Y109.069
G1 F1500 X110.929 Y118.849 E96.92944
G0 F9000 X110.363 Y118.849
G1 F1500 X101.149 Y109.634 E97.36286
G0 F9000 X101.149 Y110.2
G1 F1500 X109.798 Y118.849 E97.76968
G0 F9000 X109.232 Y118.849
G1 F1500 X101.149 Y110.766 E98.14988
G0 F9000 X101.149 Y111.331
G1 F1500 X108.666 Y118.849 E98.50348
G0 F9000 X108.101 Y118.849
G1 F1500 X101.149 Y111.897 E98.83048
G0 F9000 X101.149 Y112.463
G1 F1500 X107.535 Y118.849 E99.13086
G0 F9000 X106.969 Y118.849
G1 F1500 X101.149 Y113.028 E99.40464
G0 F9000 X101.149 Y113.594
G1 F1500 X106.404 Y118.849 E99.65182
G0 F9000 X105.838 Y118.849
G1 F1500 X101.149 Y114.16 E99.87237
G0 F9000 X101.149 Y114.725
G1 F1500 X105.272 Y118.849 E100.06633
G0 F9000 X104.706 Y118.849
G1 F1500 X101.149 Y115.291 E100.23366
G0 F9000 X101.149 Y115.857
G1 F1500 X104.141 Y118.849 E100.3744
G0 F9000 X103.575 Y118.849
G1 F1500 X101.149 Y116.423 E100.48851
G0 F9000 X101.149 Y116.988
G1 F1500 X103.009 Y118.849 E100.57602
G0 F9000 X102.444 Y118.849
G1 F1500 X101.149 Y117.554 E100.63694
G0 F9000 X101.149 Y118.12
G1 F1500 X101.878 Y118.849 E100.67123
G0 F9000 X101.312 Y118.849
G1 F1500 X101.149 Y118.685 E100.67892
G0 F9000 X100.8 Y118.685
;MESH:NONMESH
G0 F300 X100.8 Y118.685 Z0.8
G0 F9000 X100.71 Y118.685
G0 X100.782 Y119.218
G0 X119.4 Y119.4
;TIME_ELAPSED:158.808446
;LAYER:3
M106 S255
;TYPE:WALL-INNER
;MESH:xyzCalibration_cube.stl
G1 F1500 X100.6 Y119.4 E101.30421
G1 X100.6 Y100.6 E101.9295
G1 X119.4 Y100.6 E102.55479
G1 X119.4 Y119.4 E103.18008
G0 F9000 X119.8 Y119.8
;TYPE:WALL-OUTER
G1 F1500 X100.2 Y119.8 E103.83198
G1 X100.2 Y100.2 E104.48388
G1 X119.8 Y100.2 E105.13577
G1 X119.8 Y119.8 E105.78767
G0 F9000 X119.53 Y119.53
G0 X119.29 Y119.01
G0 X119.01 Y119.01
;TYPE:SKIN
G1 F1500 X100.99 Y119.01 E106.38702
G1 X100.99 Y100.99 E106.98637
G1 X119.01 Y100.99 E107.58572
G1 X119.01 Y119.01 E108.18506
G0 F9000 X118.738 Y118.849
G1 F1500 X118.849 Y118.738 E108.19028
G0 F9000 X118.849 Y118.173
G1 F1500 X118.172 Y118.849 E108.2221
G0 F9000 X117.606 Y118.849
G1 F1500 X118.849 Y117.607 E108.28055
G0 F9000 X118.849 Y117.041
G1 F1500 X117.041 Y118.849 E108.36559
G0 F9000 X116.475 Y118.849
G1 F1500 X118.849 Y116.476 E108.47723
G0 F9000 X118.849 Y115.91
G1 F1500 X115.909 Y118.849 E108.6155
G0 F9000 X115.343 Y118.849
G1 F1500 X118.849 Y115.344 E108.78039
G0 F9000 X118.849 Y114.778
G1 F1500 X114.778 Y118.849 E108.97187
G0 F9000 X114.212 Y118.849
G1 F1500 X118.849 Y114.213 E109.18996
G0 F9000 X118.849 Y113.647
G1 F1500 X113.646 Y118.849 E109.43467
G0 F9000 X113.081 Y118.849
G1 F1500 X118.849 Y113.081 E109.70598
G0 F9000 X118.849 Y112.516
G1 F1500 X112.515 Y118.849 E110.00389
G0 F9000 X111.949 Y118.849
G1 F1500 X118.849 Y111.95 E110.32842
G0 F9000 X118.849 Y111.384
G1 F1500 X111.384 Y118.849 E110.67955
G0 F9000 X110.818 Y118.849
G1 F1500 X118.849 Y110.819 E111.05728
G0 F9000 X118.849 Y110.253
